X: 4431
T: Bonnie Banchory
R: reel
M: 4/4
K: Gmajor
|:GA|BAGF GABc|d^cde dBGA|BAGF GBdB|A2D2 D2GA|
BAGF GABc|d^cde dBBA|GFAG FDdc|B2G2 G2:|
|:Bc|dBed cAdc|B2G2 G2Bc|dBed cAag|f2d2 d2Bc|
dBed cAdc|BGcB AFBA|GEAG FDdc|B2G2 G2:|

